X:211
T:Polka du Quartier
O:France
M:2/4
L:1/8
Q:1/4=150
K:C
Gc Bc|de df|ed cd/2e/2|1dc BG:|2dB c2|
|:ce g>a|gf df|ed cd/2e/2|1dc BG:|2dB c2||
